X:1
T:This is the day which the Lord hath made - MacFarren
T:James Gibb editions
T:#
%%score [ 1 2 ] { ( 3 4 ) | ( 5 6 ) }
L:1/8
Q:1/4=84
M:4/4
K:C
V:1 treble nm="SA" snm="SA"
V:2 bass nm="TB" snm="TB"
V:3 treble nm="Accomp."
V:4 treble 
V:5 bass 
V:6 bass 
V:1
"^Psalm 118:24""^allegro con brio""^This is the day which the Lord hath made""^George Alexander MacFarren\n(1813-1887)" z4!f! c2 B>A | %1
w: This is the|
 G2 F>E A2 F2 | D4 F2 E>D | G4 B2 A>G | c8- |[M:4/4] c8 | cBAG c4- | c2 B>c d2 B2 | c4 G2 A>A | %9
w: day which the Lord hath|made, this is the|day, this is the|day,||* this is the day|* which the Lord hath|made; let us re-|
 B4 B2 c>c | d4 G2 A>B | c2 Bc A3 G | G2 z2 z4 | A2 F2 C2 F>A | c4 A2 z2 | z2 A2 _B2 c2 | d8 | %17
w: joice, let us re-|joice, let us re-|joice and be glad in|it.|Glo- ry be to the|Fa- ther,|aand to the|Son,|
 z2 D2 E2 F2 | (G2 A2 =B2 c2 | d4) e4 | A4 c2 (B>A) | (G2 F>E A)GFE | D2 D2 (F2 E>D) | %23
w: and to the|Ho\- * * *|* ly|Ghost; As it *|was * * * in the be-|gin- ning, is * *|
 G4 (B2 A>G) | c3 c c2 B>A | G2 F>E A2 F>E | D4 F>E D2 | G8 | B3 A G4 | c4 z4 |!ff! [Ac]8 | %31
w: now, is * *|now, and e- ver, and|e- ver, and e- ver shall|be, world with- out|end,|world with- out|end.|A-|
 [Ge]8- | [Ge]8 | [Ge]8 |] %34
w: men.|||
V:2
 z4!f! C2 B,>A, | G,2 F,>E, A,2 F,2 | D,4 F,2 E,>D, | G,4 B,2 A,>G, | C8- |[M:4/4] C8 | %6
w: This is the|day which the Lord hath|made, this is the|day, this is the|day,||
 CB,A,G, C4- | C2 B,>C D2 B,2 | C4 G,2 A,>A, | B,4 B,2 C>C | D4 G,2 A,>B, | C2 B,C A,3 G, | %12
w: * this is the day|* which the Lord hath|made; let us re-|joice, let us re-|joice, let us re-|joice and be glad in|
 G,2 z2 z4 | A,2 F,2 C,2 F,>A, | C4 A,2 z2 | z2 A,2 _B,2 C2 | D8 | z2 D,2 E,2 F,2 | %18
w: it.|Glo- ry be to the|Fa- ther,|aand to the|Son,|and to the|
 (G,2 A,2 =B,2 C2 | D4) E4 | A,4 C2 (B,>A,) | (G,2 F,>E, A,)G,F,E, | D,2 D,2 (F,2 E,>D,) | %23
w: Ho\- * * *|* ly|Ghost; As it *|was * * * in the be-|gin- ning, is * *|
 G,4 (B,2 A,>G,) | C3 C C2 B,>A, | G,2 F,>E, A,2 F,>E, | D,4 F,>E, D,2 | G,8 | B,3 A, G,4 | C4 z4 | %30
w: now, is * *|now, and e- ver, and|e- ver, and e- ver shall|be, world with- out|end,|world with- out|end.|
!ff! F,8 | [C,E,]8- | [C,E,]8 | [C,E,]8 |] %34
w: A-|men.|||
V:3
!f! [CEGc]2 C2 z4 | z8 | z8 | z8 | z4 [cc']2 [Bb]>[Aa] |[M:4/4] [Gg]2 [Ff]>[Ee] [Aa]2 [Ff]2 | %6
 [Dd]4 [Ff]2 [Ee]>[Dd] | [Gg]4 [Bb]2 [Aa]>[Gg] | [cc']4 [DG]2 [C^FA]>[CFA] | %9
 [B,GB]4 [B,DGB]2 [CGc]>[CGc] | [DGd]4 [B,G]2 [CGA]>[DGB] | %11
 [EGc]2 [DGB][CEGc] [A,DGA]2- [A,D^FA]2 | [B,G]DG,A, B,CDE | [A,C=FA]2 [A,F]2 [A,C]2 [CF]>[CFA] | %14
 [CGc]4 [CFA]2 z2 | z2 [FA]2 [F_B]2 [FAc]2 | [F_Bd]8 | z2 D2 [CE]2 [CF]2 | %18
 [_B,EG]2 [A,FA]2 [DG=B]2 [Gc]2 | [Fd]4 [ce]4 | [FA]4 [CFc]2 [CFB]>[CFA] | %21
 [CG]2 [G,B,F]>[G,CE] AGFE | [CD]2 [B,D]2 [DF]2 [CE]>[B,D] | [CG]4 [DB]2 [B,DA]>[B,DG] | %24
 [Cc]4 [C^Fc]2 [CFB]>[CFA] | [CG]2 [CF]>[CE] [CA]2 [CF]>[CE] | [CD]4 [CF]>[CE] [CD]2 | [CEG]8 | %28
 [DFB]3 [CFA] [B,FG]4 | [CEGc]EGE cGEC |!ff! [CFAc]FAF cAFC | [EGce]GcG ecAE | %32
 C[I:staff +1]G,E,G,[I:staff -1] x4 | x8 |] %34
V:4
 x8 | x8 | x8 | z8 | z4 [CE]2 [CE]>[CF] |[M:4/4] C2 C>C C2 C2 | CB,A,G, C2 C>C | %7
 C2 B,>C [DF]2 [B,F]>[B,F] | [CE]4 x4 | x8 | x8 | x8 | x8 | x8 | x8 | x8 | x8 | x8 | x8 | %19
 c2 B2 E2 FG | x8 | x4 [A,C]2 C2 | x8 | G2 F>E x4 | x8 | x8 | x8 | x8 | x8 | x8 | x8 | x8 | x8 | %33
 x8 |] %34
V:5
!f! [C,E,G,]2 [C,,C,]2 z4 | z8 | z8 | z8 |"^Ped." C2 B,2 A,2 G,>F, |[M:4/4] E,2 D,>C, F,2 D,2 | %6
 G,4 A,2 G,>F, | E,4 D,2 G,>G, | C,4 [B,,D,G,]2 [A,,D,^F,]>[A,,D,F,] | %9
 [G,,D,G,]4 G,2 [E,G,]>[E,G,] | x8 | x8 | G,D,G,,A,, B,,C,D,E, | x8 | G,4 A,2 x2 | %15
 x2 [A,C]2 _B,2 [A,C]2 | [_B,D]4 x4 | x8 | x6 C2 | C2 B,2 [G,C]4 | [A,C]4 x4 | x8 | x8 | G,4 x4 | %24
 x4 [^F,A,]2 x2 | x8 | x8 | G,C,E,C, G,E,C,E, | G,,D,F,D, G,F,E,D, | C,4 z4 |!ff! [C,F,A,]8 | %31
 [C,-E,-G,-C]8 | C,4 C,2 C,2 | C,8 |] %34
V:6
 x8 | x8 | x8 | x8 | x8 |[M:4/4] x8 | x8 | x8 | x8 | x8 | [B,,G,]4 [E,G,]2 [E,G,]>[D,G,] | %11
 [C,G,]2 [G,,G,][C,G,] [D,G,]2- [D,^F,]2 | G,,2 x2 x4 | =F,E,D,E, F,G,A,F, | E,C,D,E, F,C,A,,C, | %15
 F,,F,E,F, D,F,C,F, | _B,,D,F,_B, DB,F,D, | _B,,F, _B,4 A,2 | G,C, F,4 E,2 | D,4 C,2 D,E, | %20
 F,4 A,2 G,>F, | E,2 D,>C, F,2 D,2 | G,2 [G,,G,]2 [D,A,]2 G,>[F,G,] | E,2 D,>C, [G,,G,]2 [G,,F,]2 | %24
 [A,,E,]4 [D,,D,]2 [D,^F,]>[D,F,] | [E,G,]2 [D,G,]>[C,G,] F,2 A,>G, | F,4 [D,A,]>[E,G,] F,2 | %27
 G,,8 | G,,8 | C,,4 z4 | F,,8 | C,,8- | C,,4 C,,2 C,,2 | C,,8 |] %34

